app/images/icons/box.svg

<svg width="58" height="58" viewBox="0 0 58 58" fill="none" xmlns="http://www.w3.org/2000/svg">
<path d="M50.6114 16.3571L29.299 6.06835C29.11 5.97722 28.89 5.97722 28.7011 6.06835L7.38863 16.3571C7.151 16.4718 7 16.7124 7 16.9763V41.9633C7 42.2271 7.151 42.4678 7.38863 42.5825L28.701 52.8712C28.7955 52.9168 28.8978 52.9396 29 52.9396C29.1022 52.9396 29.2044 52.9168 29.299 52.8712L50.6114 42.5825C50.849 42.4678 51 42.2271 51 41.9633V16.9764C51 16.7124 50.8489 16.4719 50.6114 16.3571ZM29 7.45114L48.7309 16.9763L43.0113 19.7375C42.9751 19.7099 42.9368 19.6844 42.8949 19.6641L23.298 10.2038L29 7.45114ZM21.7452 10.9812L41.4473 20.4926L37.4121 22.4406L17.7181 12.9332L21.7452 10.9812ZM41.9083 21.797V28.998L38.1391 30.8176V23.6166L41.9083 21.797ZM49.6248 41.5318L29.6876 51.1565V27.6966L34.4432 25.4008C34.7852 25.2357 34.9286 24.8247 34.7635 24.4826C34.5984 24.1407 34.1874 23.9972 33.8453 24.1624L29 26.5016L27.0934 25.5811C26.7514 25.4158 26.3404 25.5594 26.1753 25.9013C26.0102 26.2433 26.1536 26.6544 26.4955 26.8195L28.3124 27.6966V51.1565L8.37518 41.5317V18.0718L23.5572 25.401C23.6536 25.4476 23.7554 25.4696 23.8556 25.4696C24.1112 25.4696 24.3567 25.3264 24.4753 25.0808C24.6404 24.7388 24.497 24.3278 24.155 24.1626L9.26914 16.9763L16.0997 13.6788L36.7544 23.6501C36.7574 23.6543 36.7608 23.658 36.7639 23.6622V31.9132C36.7639 32.1498 36.8856 32.3697 37.086 32.4956C37.1973 32.5655 37.3243 32.6008 37.4516 32.6008C37.5536 32.6008 37.6558 32.5781 37.7505 32.5324L42.8949 30.0489C43.1325 29.9342 43.2835 29.6936 43.2835 29.4297V21.1332L49.6248 18.0719V41.5318Z" fill="#2A364E"/>
<path d="M14.0489 38.8656L10.9213 37.3557C10.5791 37.1904 10.1682 37.334 10.0031 37.676C9.83801 38.0179 9.98139 38.429 10.3234 38.5941L13.451 40.104C13.5473 40.1506 13.6492 40.1726 13.7494 40.1726C14.005 40.1726 14.2505 40.0294 14.3691 39.7838C14.5343 39.4417 14.3909 39.0308 14.0489 38.8656Z" fill="#2A364E"/>
<path d="M16.9279 36.9914L10.9261 34.0939C10.5841 33.9288 10.1731 34.0722 10.0079 34.4143C9.84293 34.7562 9.98631 35.1673 10.3283 35.3324L16.33 38.2299C16.4264 38.2763 16.5282 38.2984 16.6284 38.2984C16.884 38.2984 17.1296 38.1552 17.2481 37.9096C17.4132 37.5675 17.2698 37.1564 16.9279 36.9914Z" fill="#2A364E"/>
</svg>

<svg width="58" height="58" fill="none" xmlns="http://www.w3.org/2000/svg"><path d="M50.6 16.4 29.3 6h-.6L7.4 16.4c-.2 0-.4.3-.4.6v25c0 .2.2.5.4.6l21.3 10.3a.7.7 0 0 0 .6 0l21.3-10.3c.2-.1.4-.4.4-.6V17c0-.3-.2-.5-.4-.6ZM29 7.4 48.7 17 43 19.7H43l-19.6-9.5L29 7.5ZM21.7 11l19.7 9.5-4 2-19.7-9.6 4-2ZM42 21.8V29l-3.8 1.8v-7.2l3.8-1.8Zm7.7 19.7-20 9.7V27.7l4.8-2.3a.7.7 0 1 0-.6-1.2L29 26.5l-2-1a.7.7 0 1 0-.5 1.3l1.8.9v23.5l-20-9.7V18.1l15.3 7.3a.7.7 0 0 0 .9-.3c.1-.4 0-.8-.3-1L9.2 17l6.9-3.3 20.7 10v8.2a.7.7 0 0 0 1 .6l5-2.5c.3 0 .5-.3.5-.6v-8.3l6.3-3v23.4Z" fill="#2A364E"/><path d="m14 38.9-3-1.5a.7.7 0 1 0-.7 1.2l3.2 1.5a.7.7 0 0 0 .9-.3c.1-.4 0-.8-.4-1ZM17 37l-6-3a.7.7 0 1 0-.7 1.3l6 3A.7.7 0 1 0 17 37Z" fill="#2A364E"/></svg>
